X: 629
T: Guanggunr zitan
L: 1/16
M: 2/4
K: F
d2 d c d2 d c [I:setbarnb 1]| 
f2 f A c2 c2 | 
d f d c B2 c2 | 
d2 f A G A G D | 
G8 | 
G2> A2 c2 c c | 
A c A c d2 d A | 
G A G F G F D2- | 
D2 c2 F F F G | 
F G A2 G2 G2- | 
G2 c2 F2 F2 | 
F D C2C4 |]

@@@ Tune index: 9503
